!!!!SEGMENT: pl-kk--kk-i-636--002-003_anonim--in-parasceve-lamentatio-2da.krn
!!!cenid: 18xx:4537
!!!COM: Anonim
!!!COM-rismID: pe30004985
!!!CDT:
!!!CNT:
!!!OPR: In Parasceve
!!!OTL: Lamentatio 2da
!!!OMV: 003
!!!PDT:
!!!AGN: Sacred
!!!YEC: Copyright 2022 Narodowy Instytut Fryderyka Chopina (https://polishscores.org)
!!!YEM: License CC-BY-4.0 (https://creativecommons.org/licenses/by/4.0)
!!!SMS-siglum: PL-Kk
!!!SMS-shelfmark: Kk.I.636
!!!SMS-variant:
!!!SMS-altvar:
!!!SMS-shelfwork: 002-003 M
!!!NIFC-rismSourceID: 1001216440
!!!NIFC-rismChildID: 1001216915
!!!NIFC-islandoraID: pl-kk:40786
!!!URL-pdf-islandora: https://repozytorium.nifc.pl/islandora/object/pl-kk%3A40786/datastream/PDF/view
!!!URL-scan: https://polish.musicsources.pl/pl/lokalizacje/galeria/rekopisy/7271/1 @EN{Scan on Polish Music Sources Website} @PL{Skany w portalu Dziedzictwo Muzyki Polskiej w otwartym dostępie}
!!!IIIF:
!!!ONB-nifc: UWAGA: Lamentacje i Responsoria In Parasceve na skanach: S – 8-14, A – 31-37,T – 53-60, B – 78-86. Każda Lamentacja i Responsorium to oddzielne pliki.
!!!AIN: 1 alto 1 bass 1 soprn 1 tenor
!!!key: E-
**kern	**text	**kern	**kern	**kern
*part4	*part4	*part3	*part2	*part1
*staff4	*staff4	*staff3	*staff2	*staff1
*ICvox	*	*ICvox	*ICvox	*ICvox
*Ibass	*	*Itenor	*Ialto	*Isoprn
*I"Basso.	*	*I"Tenore.	*I"Alto.	*I"Soprano.
*I'B	*	*I'T	*I'A	*I'S
*clefF4	*	*clefC4	*clefC3	*clefC1
*k[b-e-a-]	*	*k[b-e-a-]	*k[b-e-a-]	*k[b-e-a-]
*E-:	*	*E-:	*E-:	*E-:
*M2/4	*	*M2/4	*M2/4	*M2/4
*all\right	*	*all\right	*all\right	*all\right
=1	=1	=1	=1	=1
*2\right	*	*2\right	*2\right	*2\right
!!LO:TX:t=P:problem:all\right
!	!	!LO:TX:a:t=Tacet.	!LO:TX:a:t=Tacet.	!LO:TX:a:t=Tacet.
4G\	La-	2ryy	2ryy	2ryy
4F\	.	.	.	.
=2	=2	=2	=2	=2
4E-\	.	2ryy	2ryy	2ryy
4F\	.	.	.	.
=3	=3	=3	=3	=3
2F\	-med	2ryy	2ryy	2ryy
=4	=4	=4	=4	=4
2E-;\	,	2ryy	2ryy	2ryy
!LO:LB:g=original	!	!	!	!
=5||	=5||	=5||	=5||	=5||
4E-\	Ma-	2ryy	2ryy	2ryy
(4F\	.	.	.	.
=6	=6	=6	=6	=6
8G\)	.	2ryy	2ryy	2ryy
16G\	-tri-	.	.	.
16G\	-bus	.	.	.
8G\	su-	.	.	.
8G\	-is	.	.	.
=7	=7	=7	=7	=7
8r	.	2ryy	2ryy	2ryy
8G\	di-	.	.	.
8G\	-xe-	.	.	.
8G\	-runt	.	.	.
=8	=8	=8	=8	=8
4r	.	2ryy	2ryy	2ryy
8G\	u-	.	.	.
16G\	-bi	.	.	.
16G\	est	.	.	.
!LO:LB:g=original	!	!	!	!
=9	=9	=9	=9	=9
8.A-\	tru-	2ryy	2ryy	2ryy
16G\	-li-	.	.	.
8G\	-cum	.	.	.
8G\	et	.	.	.
=10	=10	=10	=10	=10
4F\	vi-	2ryy	2ryy	2ryy
(4F\	-num	.	.	.
=11	=11	=11	=11	=11
4G\)	,	2ryy	2ryy	2ryy
4r	.	.	.	.
=12	=12	=12	=12	=12
4E-\	cum	2ryy	2ryy	2ryy
4F\	de-	.	.	.
=13	=13	=13	=13	=13
16G\	-fi-	2ryy	2ryy	2ryy
16G\	-ce-	.	.	.
16G\	-rent,	.	.	.
16r	.	.	.	.
4r	.	.	.	.
!LO:LB:g=original	!	!	!	!
=14	=14	=14	=14	=14
8G\	qua-	2r	2r	2r
8G\	-si	.	.	.
8G\	vul-	.	.	.
8G\	-ne-	.	.	.
=15	=15	=15	=15	=15
8G\	-ra-	2r	2r	2r
8G\	-ti,	.	.	.
4r	.	.	.	.
=16	=16	=16	=16	=16
8G\	in	2r	2r	2r
8G\	pla-	.	.	.
8G\	-te-	.	.	.
8G\	-is	.	.	.
!LO:LB:g=original	!	!	!	!
=17	=17	=17	=17	=17
8G\	ci-	2ryy	2ryy	2ryy
8G\	-vi-	.	.	.
8G\	-ta-	.	.	.
8G\	-tis,	.	.	.
=18	=18	=18	=18	=18
8r	.	2ryy	2ryy	2ryy
8G\	et	.	.	.
8G\	ex-	.	.	.
8G\	-ha-	.	.	.
=19	=19	=19	=19	=19
8G\	-la-	2ryy	2ryy	2ryy
8G\	-rent	.	.	.
8G\	a-	.	.	.
16G\	-ni-	.	.	.
16G\	-mas	.	.	.
!LO:LB:g=original	!	!	!	!
=20	=20	=20	=20	=20
8G\	su-	2ryy	2ryy	2ryy
8G\	-as,	.	.	.
4r	.	.	.	.
=21	=21	=21	=21	=21
8r	.	2ryy	2ryy	2ryy
8G\	in	.	.	.
8G\	si-	.	.	.
8G\	-nu	.	.	.
=22	=22	=22	=22	=22
4A-\	ma-	2ryy	2ryy	2ryy
8F\	-trum	.	.	.
8F\	su-	.	.	.
=23	=23	=23	=23	=23
4E-\	-a-	2ryy	2ryy	2ryy
4D\	.	.	.	.
=24	=24	=24	=24	=24
4E-\	.	2ryy	2ryy	2ryy
4F\	.	.	.	.
!LO:LB:g=original	!	!	!	!
=25	=25	=25	=25	=25
2F\	-rum	2ryy	2ryy	2ryy
=26	=26	=26	=26	=26
2E-;\	,	2ryy	2ryy	2ryy
=27||	=27||	=27||	=27||	=27||
4G\	Mem	2ryy	2ryy	2ryy
4F\	.	.	.	.
=28	=28	=28	=28	=28
4E-\	.	2ryy	2ryy	2ryy
4F\	.	.	.	.
=29	=29	=29	=29	=29
2E-;\	,	2ryy	2ryy	2ryy
=30||	=30||	=30||	=30||	=30||
4E-\	cu-	2ryy	2ryy	2ryy
4F\	-i	.	.	.
!LO:PB:g=original	!	!	!	!
=31	=31	=31	=31	=31
8G\	com-	2ryy	2ryy	2ryy
8G\	-pa-	.	.	.
8G\	-ra-	.	.	.
8G\	-bo	.	.	.
=32	=32	=32	=32	=32
4G\	te,	2ryy	2ryy	2ryy
8r	.	.	.	.
8G\	vel	.	.	.
=33	=33	=33	=33	=33
8G\	cu-	2ryy	2ryy	2ryy
8G\	-i	.	.	.
8r	.	.	.	.
8G\	as-	.	.	.
!LO:LB:g=original	!	!	!	!
=34	=34	=34	=34	=34
8G\	-si-	2ryy	2ryy	2ryy
8G\	-mi-	.	.	.
8G\	-la-	.	.	.
16G\	-bo	.	.	.
16G\	te,	.	.	.
=35	=35	=35	=35	=35
8.A-\	fi-	2ryy	2ryy	2ryy
16G\	-li-	.	.	.
8G\	-a	.	.	.
8G\	Je-	.	.	.
=36	=36	=36	=36	=36
8F\	-ru-	2ryy	2ryy	2ryy
8F\	-sa-	.	.	.
(4F\	-lem	.	.	.
!LO:LB:g=original	!	!	!	!
=37	=37	=37	=37	=37
4G\)	,	2ryy	2ryy	2ryy
4r	.	.	.	.
=38	=38	=38	=38	=38
4E-\	cu-	2ryy	2ryy	2ryy
4F\	-i	.	.	.
=39	=39	=39	=39	=39
8G\	e-	2ryy	2ryy	2ryy
8G\	-xe-	.	.	.
8G\	-qua-	.	.	.
8G\	-bo	.	.	.
=40	=40	=40	=40	=40
4G\	te,	2ryy	2ryy	2ryy
8r	.	.	.	.
8G\	et	.	.	.
!LO:LB:g=original	!	!	!	!
=41	=41	=41	=41	=41
8G\	con-	2ryy	2ryy	2ryy
8G\	-so-	.	.	.
8G\	-la-	.	.	.
8G\	-bor	.	.	.
=42	=42	=42	=42	=42
8r	.	2ryy	2ryy	2ryy
8G\	te	.	.	.
8G\	vir-	.	.	.
8G\	-go	.	.	.
=43	=43	=43	=43	=43
8.A-\	fi-	2ryy	2ryy	2ryy
16G\	-li-	.	.	.
4G\	-a	.	.	.
=44	=44	=44	=44	=44
4F\	Si-	2ryy	2ryy	2ryy
(4F\	-on	.	.	.
!LO:LB:g=original	!	!	!	!
=45	=45	=45	=45	=45
4G\)	,	2ryy	2ryy	2ryy
4r	.	.	.	.
=46	=46	=46	=46	=46
4E-\	ma-	2ryy	2ryy	2ryy
8.F\	-gna	.	.	.
16G\	est	.	.	.
=47	=47	=47	=47	=47
8G\	e-	2ryy	2ryy	2ryy
8G\	-nim	.	.	.
4r	.	.	.	.
=48	=48	=48	=48	=48
8G\	ve-	2ryy	2ryy	2ryy
8G\	-lut	.	.	.
8G\	ma-	.	.	.
16G\	-re	.	.	.
16G\	con-	.	.	.
!LO:LB:g=original	!	!	!	!
=49	=49	=49	=49	=49
8.A-\	-tri-	2ryy	2ryy	2ryy
16G\	-ti-	.	.	.
4G\	-o	.	.	.
=50	=50	=50	=50	=50
4F\	tu-	2ryy	2ryy	2ryy
(4F\	-a	.	.	.
=51	=51	=51	=51	=51
4G\)	,	2ryy	2ryy	2ryy
4r	.	.	.	.
=52	=52	=52	=52	=52
4r	.	2ryy	2ryy	2ryy
8G\	quis	.	.	.
8G\	me-	.	.	.
=53	=53	=53	=53	=53
8.A-\	-de-	2ryy	2ryy	2ryy
16F\	-bi-	.	.	.
4F\	-tur	.	.	.
!LO:LB:g=original	!	!	!	!
=54	=54	=54	=54	=54
4E-\	tu-	2ryy	2ryy	2ryy
4D\	.	.	.	.
=55	=55	=55	=55	=55
4E-\	.	2ryy	2ryy	2ryy
4F\	.	.	.	.
=56	=56	=56	=56	=56
2F\	-i	2ryy	2ryy	2ryy
=57	=57	=57	=57	=57
2E-;\	,	2ryy	2ryy	2ryy
=58||	=58||	=58||	=58||	=58||
4G\	Nun	2ryy	2ryy	2ryy
4F\	.	.	.	.
=59	=59	=59	=59	=59
4E-\	.	2ryy	2ryy	2ryy
4F\	.	.	.	.
=60	=60	=60	=60	=60
2E-;\	,	2ryy	2ryy	2ryy
!LO:LB:g=original	!	!	!	!
=61||	=61||	=61||	=61||	=61||
4E-\	Pro-	2ryy	2ryy	2ryy
(4F\	.	.	.	.
=62	=62	=62	=62	=62
8G\)	-phe-	2ryy	2ryy	2ryy
8G\	-tae	.	.	.
8G\	e-	.	.	.
8G\	-jus	.	.	.
=63	=63	=63	=63	=63
8r	.	2ryy	2ryy	2ryy
8G\	vi-	.	.	.
8G\	-de-	.	.	.
8G\	-runt	.	.	.
=64	=64	=64	=64	=64
4r	.	2ryy	2ryy	2ryy
8G\	ti-	.	.	.
8G\	-bi	.	.	.
!LO:LB:g=original	!	!	!	!
=65	=65	=65	=65	=65
4A-\	fal-	2ryy	2ryy	2ryy
8G\	-sa	.	.	.
8G\	et	.	.	.
=66	=66	=66	=66	=66
4F\	stul-	2ryy	2ryy	2ryy
(4F\	-ta	.	.	.
=67	=67	=67	=67	=67
4G\)	,	2ryy	2ryy	2ryy
4r	.	.	.	.
=68	=68	=68	=68	=68
8G\	nec	2ryy	2ryy	2ryy
8G\	a-	.	.	.
8G\	-pe-	.	.	.
8G\	-ri-	.	.	.
!LO:LB:g=original	!	!	!	!
=69	=69	=69	=69	=69
8G\	-e-	2ryy	2ryy	2ryy
8G\	-bant	.	.	.
8r	.	.	.	.
8G\	i-	.	.	.
=70	=70	=70	=70	=70
8G\	-ni-	2ryy	2ryy	2ryy
8G\	-qui-	.	.	.
8G\	-ta-	.	.	.
8G\	-tem	.	.	.
=71	=71	=71	=71	=71
8G\	tu-	2ryy	2ryy	2ryy
8G\	-am,	.	.	.
8r	.	.	.	.
8G\	ut	.	.	.
!LO:LB:g=original	!	!	!	!
=72	=72	=72	=72	=72
8G\	te	2ryy	2ryy	2ryy
8G\	ad	.	.	.
8G\	pe-	.	.	.
8G\	-ni-	.	.	.
=73	=73	=73	=73	=73
8.G\	-ten-	2ryy	2ryy	2ryy
16G\	-ti-	.	.	.
4G\	-am	.	.	.
=74	=74	=74	=74	=74
4A-\	pro-	2ryy	2ryy	2ryy
4G\	-vo-	.	.	.
=75	=75	=75	=75	=75
4F\	-ca-	2ryy	2ryy	2ryy
(4F\	-rent,	.	.	.
=76	=76	=76	=76	=76
4G\)	.	2ryy	2ryy	2ryy
4r	.	.	.	.
!LO:LB:g=original	!	!	!	!
=77	=77	=77	=77	=77
4E-\	vi-	2ryy	2ryy	2ryy
(4F\	-de-	.	.	.
=78	=78	=78	=78	=78
8G\)	.	2ryy	2ryy	2ryy
8G\	-runt	.	.	.
8G\	au-	.	.	.
8G\	-tem	.	.	.
=79	=79	=79	=79	=79
8G\	ti-	2ryy	2ryy	2ryy
8G\	-bi	.	.	.
8r	.	.	.	.
8G\	as-	.	.	.
=80	=80	=80	=80	=80
8G\	-sum-	2ryy	2ryy	2ryy
8G\	-pti-	.	.	.
8G\	-o-	.	.	.
8G\	-nes	.	.	.
=81	=81	=81	=81	=81
8G\	fal-	2ryy	2ryy	2ryy
8G\	-sas,	.	.	.
4r	.	.	.	.
!LO:TX:b:rj:t=Volti Subitto&colon;	!	!	!	!
!LO:PB:g=original	!	!	!	!
=82	=82	=82	=82	=82
4r	.	2ryy	2ryy	2ryy
8G\	et	.	.	.
8G\	e-	.	.	.
=83	=83	=83	=83	=83
4A-\	-je-	2ryy	2ryy	2ryy
4F\	-cti-	.	.	.
=84	=84	=84	=84	=84
4E-\	-o-	2ryy	2ryy	2ryy
4D\	.	.	.	.
=85	=85	=85	=85	=85
4E-\	.	2ryy	2ryy	2ryy
4F\	.	.	.	.
=86	=86	=86	=86	=86
2F\	-nes	2ryy	2ryy	2ryy
=87	=87	=87	=87	=87
2E-;\	,	2ryy	2ryy	2ryy
!LO:LB:g=original	!	!	!	!
=88||	=88||	=88||	=88||	=88||
4G\	Sa-	2ryy	2ryy	2ryy
4F\	.	.	.	.
=89	=89	=89	=89	=89
4E-\	.	2ryy	2ryy	2ryy
4F\	.	.	.	.
=90	=90	=90	=90	=90
2F\	-meth	2ryy	2ryy	2ryy
=91	=91	=91	=91	=91
2E-;\	,	2ryy	2ryy	2ryy
=92||	=92||	=92||	=92||	=92||
4E-\	plau-	2ryy	2ryy	2ryy
(4F\	-se-	.	.	.
=93	=93	=93	=93	=93
8G\)	.	2ryy	2ryy	2ryy
8G\	-runt	.	.	.
8G\	su-	.	.	.
8G\	-per	.	.	.
!LO:LB:g=original	!	!	!	!
=94	=94	=94	=94	=94
4G\	te	2ryy	2ryy	2ryy
4r	.	.	.	.
=95	=95	=95	=95	=95
8G\	ma-	2ryy	2ryy	2ryy
16G\	-ni-	.	.	.
16G\	-bus	.	.	.
8G\	om-	.	.	.
8G\	-nes,	.	.	.
=96	=96	=96	=96	=96
4r	.	2ryy	2ryy	2ryy
8G\	tran-	.	.	.
8G\	-se-	.	.	.
=97	=97	=97	=97	=97
4G\	-un-	2ryy	2ryy	2ryy
8G\	-tes	.	.	.
8G\	per	.	.	.
!LO:LB:g=original	!	!	!	!
=98	=98	=98	=98	=98
8G\	vi-	2ryy	2ryy	2ryy
8G\	-am,	.	.	.
4r	.	.	.	.
=99	=99	=99	=99	=99
8r	.	2ryy	2ryy	2ryy
8G\	si-	.	.	.
8G\	-bi-	.	.	.
8G\	-la-	.	.	.
=100	=100	=100	=100	=100
8G\	-ve-	2ryy	2ryy	2ryy
8G\	-runt	.	.	.
4r	.	.	.	.
=101	=101	=101	=101	=101
8G\	et	2ryy	2ryy	2ryy
8G\	mo-	.	.	.
8G\	-ve-	.	.	.
8G\	-runt	.	.	.
!LO:LB:g=original	!	!	!	!
=102	=102	=102	=102	=102
8G\	ca-	2ryy	2ryy	2ryy
16G\	-pi-	.	.	.
16G\	-ta	.	.	.
8G\	su-	.	.	.
8G\	-a,	.	.	.
=103	=103	=103	=103	=103
4r	.	2ryy	2ryy	2ryy
8G\	su-	.	.	.
8G\	-per	.	.	.
=104	=104	=104	=104	=104
8.A-\	fi-	2ryy	2ryy	2ryy
16G\	-li-	.	.	.
8G\	-am	.	.	.
8G\	Je-	.	.	.
!LO:LB:g=original	!	!	!	!
=105	=105	=105	=105	=105
8F\	-ru-	2ryy	2ryy	2ryy
8F\	-sa-	.	.	.
(4F\	-lem	.	.	.
=106	=106	=106	=106	=106
4G\)	,	2ryy	2ryy	2ryy
4r	.	.	.	.
=107	=107	=107	=107	=107
4E-\	Hec-	2ryy	2ryy	2ryy
(4F\	.	.	.	.
=108	=108	=108	=108	=108
8G\)	.	2ryy	2ryy	2ryy
8G\	-ci-	.	.	.
8G\	-ne	.	.	.
8G\	est	.	.	.
=109	=109	=109	=109	=109
4G\	Urbs	2ryy	2ryy	2ryy
8r	.	.	.	.
8G\	di-	.	.	.
!LO:LB:g=original	!	!	!	!
=110	=110	=110	=110	=110
8G\	-cen-	2ryy	2ryy	2ryy
8G\	-tes	.	.	.
8r	.	.	.	.
8G\	per-	.	.	.
=111	=111	=111	=111	=111
4G\	-fec-	2ryy	2ryy	2ryy
8G\	-ti	.	.	.
8G\	de-	.	.	.
=112	=112	=112	=112	=112
8G\	-co-	2ryy	2ryy	2ryy
8G\	-ris,	.	.	.
4r	.	.	.	.
=113	=113	=113	=113	=113
8G\	gau-	2ryy	2ryy	2ryy
16G\	-di-	.	.	.
16G\	-um	.	.	.
8G\	u-	.	.	.
8G\	-ni-	.	.	.
!LO:LB:g=original	!	!	!	!
=114	=114	=114	=114	=114
4A-\	-ver-	2ryy	2ryy	2ryy
4F\	-sae	.	.	.
=115	=115	=115	=115	=115
4E-\	ter-	2ryy	2ryy	2ryy
4D\	.	.	.	.
=116	=116	=116	=116	=116
4E-\	.	2ryy	2ryy	2ryy
4F\	.	.	.	.
=117	=117	=117	=117	=117
2F\	-rae	2ryy	2ryy	2ryy
=118	=118	=118	=118	=118
2E-;\	,	2ryy	2ryy	2ryy
=119||	=119||	=119||	=119||	=119||
4E-\	Je-	2ryy	2ryy	2ryy
(4F\	-ru-	.	.	.
=120	=120	=120	=120	=120
8G\)	.	2ryy	2ryy	2ryy
8G\	-sa-	.	.	.
4G\	-lem	.	.	.
!LO:LB:g=original	!	!	!	!
=121	=121	=121	=121	=121
4r	.	2ryy	2ryy	2ryy
4G\	Je-	.	.	.
=122	=122	=122	=122	=122
4A-\	-ru-	2ryy	2ryy	2ryy
(4G\	.	.	.	.
=123	=123	=123	=123	=123
8F\)	.	2ryy	2ryy	2ryy
8F\	-sa-	.	.	.
(4F\	-lem	.	.	.
=124	=124	=124	=124	=124
4G\)	,	2ryy	2ryy	2ryy
4r	.	.	.	.
=125	=125	=125	=125	=125
4E-\	con-	2ryy	2ryy	2ryy
(4F\	-ver-	.	.	.
=126	=126	=126	=126	=126
8G\)	.	2ryy	2ryy	2ryy
8G\	-te-	.	.	.
4G\	-re	.	.	.
!LO:LB:g=original	!	!	!	!
=127	=127	=127	=127	=127
8r	.	2ryy	2ryy	2ryy
8G\	ad	.	.	.
8G\	Do-	.	.	.
16G\	-mi-	.	.	.
16G\	-num	.	.	.
=128	=128	=128	=128	=128
4A-\	De-	2ryy	2ryy	2ryy
4F\	-um	.	.	.
=129	=129	=129	=129	=129
4E-\	tu-	2ryy	2ryy	2ryy
4D\	.	.	.	.
=130	=130	=130	=130	=130
4E-\	.	2ryy	2ryy	2ryy
4F\	.	.	.	.
=131	=131	=131	=131	=131
2F\	-um	2ryy	2ryy	2ryy
=132	=132	=132	=132	=132
2E-;\	-.	2ryy	2ryy	2ryy
==	==	==	==	==
*-	*-	*-	*-	*-
!!!system-decoration: [(s1,s2,s3,s4)]
!!!RDF**kern: > = above
!!!RDF**kern: < = below
!!!RDF**kern: i = editorial accidental
!!!ENC: Berenika Jozajtis
!!!EED: Katarzyna Serwa
!!!END: 2023-11-15
!!!EEV: 2024-06-04
